svg/white/xem.svg

<svg xmlns="http://www.w3.org/2000/svg" width="32" height="32" viewBox="0 0 32 32">
  <path fill="#FFF" fill-rule="evenodd" d="M16,32 C7.163444,32 0,24.836556 0,16 C0,7.163444 7.163444,0 16,0 C24.836556,0 32,7.163444 32,16 C32,24.836556 24.836556,32 16,32 Z M6.14530978,11.9536742 C6.22935277,12.6544369 6.35097489,13.3523768 6.50974673,14.0470752 C6.5351796,14.158104 6.56783679,14.2559318 6.61078363,14.3476146 C7.52474522,16.2993229 9.64056263,17.3355045 11.7396969,16.858756 C13.3372772,16.4958892 14.6346672,15.259046 15.0798063,13.6755771 C15.1907277,13.2811911 15.2430107,12.8586889 15.2594199,12.3231398 C15.2701133,11.9748082 15.3033432,11.6489703 15.3629104,11.3356425 C15.7073345,9.52559676 16.8331029,7.99962491 18.4279986,7.14528588 C17.8031494,7.07784974 16.9819421,7.01531647 16.4141909,7.00412442 C14.2739928,6.96178893 12.1863206,7.24531739 10.1519743,7.85718535 C8.70274296,8.29300264 7.32182033,8.88464403 6,9.63638258 C6.00187205,10.3956752 6.05084138,11.1668156 6.14530978,11.9536742 Z M22.7576998,20.5140732 C24.0987313,18.4344293 25.0292722,16.1917303 25.547875,13.7833769 C25.7241526,12.9649241 25.8488089,12.1368781 25.9221236,11.2988993 C25.972015,10.7287671 25.9983046,10.1760529 26,9.63546814 C25.5279947,9.36815454 25.0842303,9.13768347 24.6436177,8.9314036 C23.8805248,8.57427105 23.2550211,8.31896621 22.6357403,8.12410581 C21.8294699,7.8705308 21.0185402,7.84282398 20.1986708,8.04121722 C17.863452,8.60618052 16.3764745,10.8984609 16.8174526,13.2600061 C17.0613277,14.5663054 17.7537473,15.5777842 18.8910166,16.3001352 C18.9309389,16.3255012 18.9628784,16.345043 19.0390688,16.39107 C19.0863148,16.4196084 19.0863148,16.4196084 19.1297505,16.4461316 C20.047572,17.0096668 20.7654247,17.7652423 21.2765665,18.7083151 C21.7684879,19.6160844 22.0125072,20.5818328 22.0055221,21.598774 C22.2689238,21.2447276 22.5196708,20.8831802 22.7576998,20.5140732 Z M19.7213745,24.1868994 C19.7673992,24.1431777 19.8057075,24.0903337 19.8388051,24.0251873 C19.8610779,23.9813126 19.8610779,23.9813126 19.8832753,23.9377227 C19.9730518,23.7614557 20.0106523,23.6865257 20.0547818,23.5945738 C20.5750445,22.5095276 20.6726457,21.4092145 20.3378304,20.288154 C19.6943414,18.1334899 17.6144667,16.8089403 15.4361402,17.0820941 C14.8370511,17.1572284 14.2683568,17.3480179 13.7299027,17.6514864 C12.6003108,18.2881607 11.3956435,18.5471104 10.1165929,18.4244613 C9.49027439,18.3643885 8.88405397,18.2042322 8.29807533,17.9462413 C8.09155944,17.855318 7.89095507,17.7528682 7.69619454,17.6389855 C8.10985572,18.5848421 8.59542758,19.4963484 9.15266954,20.3737109 C9.90708762,21.5615656 10.7761509,22.6602685 11.7595631,23.6699725 C12.7410051,24.6775442 13.8159009,25.5744979 14.9839832,26.3609767 C15.3930405,26.6361766 15.7925156,26.8853764 16.0018949,27 C17.3436514,26.2083571 18.5786379,25.2723627 19.7213745,24.1868994 Z"/>
</svg>

<svg xmlns="http://www.w3.org/2000/svg" width="32" height="32"><path fill="#FFF" fill-rule="evenodd" d="M16 32C7.163 32 0 24.837 0 16S7.163 0 16 0s16 7.163 16 16-7.163 16-16 16zM6.145 11.954c.084.7.206 1.398.365 2.093.025.111.058.209.1.3a4.53 4.53 0 0 0 8.47-.671c.11-.395.163-.817.18-1.353a6.005 6.005 0 0 1 3.169-5.178 26.063 26.063 0 0 0-2.015-.14 20.221 20.221 0 0 0-6.262.852A20.035 20.035 0 0 0 6 9.637c.002.759.05 1.53.145 2.317zm16.613 8.56a20.147 20.147 0 0 0 3.164-9.215c.05-.57.076-1.123.078-1.664a19.598 19.598 0 0 0-1.356-.704c-.763-.357-1.389-.612-2.008-.807a4.468 4.468 0 0 0-2.437-.083 4.518 4.518 0 0 0-3.382 5.219c.244 1.306.937 2.318 2.074 3.04a7.075 7.075 0 0 0 .239.146 5.933 5.933 0 0 1 2.147 2.262c.491.908.736 1.874.729 2.89.263-.353.514-.715.752-1.084zm-3.037 3.673a.581.581 0 0 0 .118-.162l.044-.087c.09-.177.128-.251.172-.343.52-1.085.618-2.186.283-3.307a4.52 4.52 0 0 0-4.902-3.206c-.599.075-1.168.266-1.706.57a6.027 6.027 0 0 1-6.034-.013 20.346 20.346 0 0 0 4.063 6.031 20.375 20.375 0 0 0 3.225 2.691c.409.275.809.524 1.018.639a20.522 20.522 0 0 0 3.72-2.813z"/></svg>
